X:1
T: The Ivy Leaf
P:O'Neill's version
R:Reel
Q: 232
K:D
M:4/4
L:1/8
A2 ed cd ec|A2 ec dB GB|A2 ed cd ec|BG EF GA BG|A2 ed cd ec|A2 ec dB GB|A2 ed cd ec|BG EF GA BG|
ea ag ed Bd|gf gd BG Bd|ea ag ed cB|AG EF GA BG|ea ag ed Bd|gf gd BG Bd|AG AB cB cd|((3efg) fa ge dB|
ea ag ed Bd|gf gd BG Bd|ea ag ed cB|AG EF GA BG|ea ag ed Bd|gf gd BG Bd|AG AB cB cd|((3efg) fa ge dB|
A2 ed cd ec|A2 ec dB GB|A2 ed cd ec|BG EF GA BG|A2 ed cd ec|A2 ec dB GB|A2 ed cd ec|BG FG A2 A2||
